images/heading-paw.svg

<svg width="19" height="18" viewBox="0 0 19 18" fill="none" xmlns="http://www.w3.org/2000/svg">
<path d="M11.1053 2.5325C11.2678 3.25359 11.1896 4.03637 10.9918 4.78587C10.7465 5.71526 10.2288 6.82625 9.29361 7.20957C8.13965 7.69287 6.86802 6.92047 6.38034 5.85139C5.99459 5.00379 6.00082 4.00786 6.11074 3.10516C6.23649 2.14249 6.55735 1.16979 7.27102 0.531718C8.86535 -0.891021 10.7917 0.803858 11.1053 2.5325Z" fill="#403148"/>
<path d="M3.20974 1.94397C4.51033 3.33591 4.52859 5.81908 3.45804 7.32327C3.19787 7.7014 2.80413 7.97798 2.34625 8.01142C1.88836 8.04485 1.44984 7.76185 1.15457 7.42219C0.586007 6.78115 0.209936 5.77533 0.0570826 4.89602C-0.115969 3.85018 0.109102 2.75425 0.668997 1.84809C0.837757 1.57325 1.0364 1.30672 1.33082 1.16341C1.68501 1.03674 2.08136 1.1149 2.41619 1.30466C2.69125 1.47779 2.95841 1.6809 3.20974 1.94397Z" fill="#403148"/>
<path d="M16.5363 5.65352C15.2357 5.35577 13.8585 5.71257 12.7906 6.47731C11.8819 7.12542 10.6874 8.36984 10.9404 9.59891C11.1812 10.6314 12.1496 11.0941 13.0996 11.262C15.0155 11.5379 17.254 10.7129 18.3483 9.11879C18.9222 8.28091 18.8572 7.5548 18.2984 6.75554C17.8493 6.14778 17.2315 5.81487 16.5363 5.65352Z" fill="#403148"/>
<path d="M16.5348 13.9242C16.6245 13.9491 16.744 13.9824 16.8336 14.0074C18.0587 14.3484 19.2574 15.5189 18.258 16.7533C17.2209 18.0093 12.093 16.292 12.8568 14.7346C12.9421 14.5331 13.1011 14.4165 13.2901 14.3082C14.2288 13.6684 15.4433 13.6847 16.5348 13.9242Z" fill="#403148"/>
</svg>

<svg width="19" height="18" fill="none" xmlns="http://www.w3.org/2000/svg"><path d="M11.105 2.533c.163.72.085 1.503-.113 2.253-.246.93-.763 2.04-1.698 2.424-1.154.483-2.426-.29-2.914-1.359-.385-.847-.38-1.843-.27-2.746.126-.963.447-1.935 1.161-2.573 1.594-1.423 3.52.272 3.834 2zM3.21 1.944c1.3 1.392 1.319 3.875.248 5.38-.26.377-.654.654-1.112.687-.458.034-.896-.25-1.191-.589C.586 6.782.21 5.775.057 4.896A4.458 4.458 0 0 1 .67 1.848c.169-.275.367-.541.662-.685.354-.126.75-.048 1.085.142.275.173.542.376.794.639zM16.536 5.654c-1.3-.298-2.678.059-3.745.823-.91.648-2.104 1.893-1.85 3.122.24 1.032 1.209 1.495 2.159 1.663 1.915.276 4.154-.55 5.248-2.143.574-.838.51-1.564-.05-2.363-.449-.608-1.066-.941-1.762-1.102zM16.535 13.924l.299.083c1.225.341 2.423 1.512 1.424 2.746-1.037 1.256-6.165-.461-5.401-2.018.085-.202.244-.319.433-.427.939-.64 2.153-.623 3.245-.384z" fill="#403148"/></svg>
